X: 14393
T: Galway Bay
R: hornpipe
M: 4/4
K: Gdorian
GF|DGGG GABc|dggf gabg|fdbg f_edc|BBBA GFDC|
DGGG cGBG|DFFE FB,DF|GABc dcAc|B2G2 G2 (3DE^F|
GGGA BBBc|dggg gabg|fdbg f_edc|BGD B,G,B,DF|
GGGG GABG|DFFE FB,DF|GABc dcAc|B2G2 G3g||
gfdf gabg|gfdc GFD2|BBBc ddde|fcdB AGFA|
BFdB AFcA|BFdB ABc_e|dfga bagf|d2 g2 g3a|
gfdf gabg|gfdc GFD2|BBBc ddde|fcdB AGFD|
G,CDG G,CDG|G,B,DF _EGFD|GABG _EFG_E|CD_EC A,DG,2||

